X: 42126
T: Washington Square Park
R: three-two
M: 3/2
K: Emajor
|:cB/G/F/E/|FG EB, B,/C/E|FE EB, B,/C/E|1 AG BG FE|FF/G/ E:|2 cB BG FE|E3||
|:B B/c/e/f/|ge fe B/c/e/f/|be fe B/=c/e/f/|=ge e=d =dB|A=d BA B/c/e/f/|
ge fe B/c/e/f/|be fe B/=c/e/f/|=ge e=d =dB|1 A3:|2 B3||

